app/elements/ss-player/images/muted.svg

<?xml version="1.0" encoding="UTF-8" standalone="no"?>
<svg width="29px" height="29px" viewBox="0 0 29 29" version="1.1" xmlns="http://www.w3.org/2000/svg" xmlns:xlink="http://www.w3.org/1999/xlink" xmlns:sketch="http://www.bohemiancoding.com/sketch/ns">
    <!-- Generator: Sketch 3.0.4 (8054) - http://www.bohemiancoding.com/sketch -->
    <title>Slice 2</title>
    <desc>Created with Sketch.</desc>
    <defs></defs>
    <g id="Page-1" stroke="none" stroke-width="1" fill="none" fill-rule="evenodd" sketch:type="MSPage">
        <g id="muted" sketch:type="MSLayerGroup" fill="#000000">
            <path d="M10.096,14.439 C10.096,10.495 13.295,7.297 17.237,7.297 C17.341,7.297 17.442,7.308 17.542,7.313 L17.542,0.575 C17.542,-0.699 15.892,0.545 15.892,0.545 L5.426,8.356 C5.426,8.356 4.447,8.456 3.321,8.731 L3.321,20.069 C4.448,20.312 5.426,20.424 5.426,20.424 L15.662,28.02 C15.662,28.02 17.541,29.593 17.541,27.969 L17.541,21.567 C17.441,21.571 17.34,21.583 17.236,21.583 C13.295,21.583 10.096,18.385 10.096,14.439 L10.096,14.439 Z" id="Shape" sketch:type="MSShapeGroup"></path>
            <path d="M0,11.02 L0,18.322 C0,18.89 0.801,19.331 1.785,19.659 L1.785,9.219 C0.801,9.627 0,10.208 0,11.02 L0,11.02 Z" id="Shape" sketch:type="MSShapeGroup"></path>
            <path d="M21.039,11.895 L19.541,10.396 C19.541,10.396 17.152,12.941 16.998,12.941 C16.842,12.941 14.451,10.396 14.451,10.396 L12.955,11.895 C12.955,11.895 15.496,14.23 15.496,14.443 C15.496,14.651 12.955,16.987 12.955,16.987 L14.451,18.483 C14.451,18.483 16.824,15.939 16.998,15.939 C17.17,15.939 19.541,18.483 19.541,18.483 L21.039,16.987 C21.039,16.987 18.494,14.614 18.494,14.443 C18.494,14.268 21.039,11.895 21.039,11.895 L21.039,11.895 Z" id="Shape" sketch:type="MSShapeGroup"></path>
            <path d="M16.998,7.297 C13.055,7.297 9.853,10.495 9.853,14.439 C9.853,18.385 13.054,21.583 16.998,21.583 C20.942,21.583 24.141,18.386 24.141,14.439 C24.141,10.495 20.941,7.297 16.998,7.297 L16.998,7.297 Z M16.998,20.373 C13.723,20.373 11.064,17.717 11.064,14.439 C11.064,11.163 13.722,8.507 16.998,8.507 C20.275,8.507 22.93,11.163 22.93,14.439 C22.93,17.717 20.275,20.373 16.998,20.373 L16.998,20.373 Z" id="Shape" sketch:type="MSShapeGroup"></path>
            <path d="M21.9979968,7.297 C18.0549968,7.297 14.8529968,10.495 14.8529968,14.439 C14.8529968,18.385 18.0539968,21.583 21.9979968,21.583 C25.9419968,21.583 29.1409968,18.386 29.1409968,14.439 C29.1409968,10.495 25.9409968,7.297 21.9979968,7.297 L21.9979968,7.297 Z M21.9979968,20.373 C18.7229968,20.373 16.0639968,17.717 16.0639968,14.439 C16.0639968,11.163 18.7219968,8.507 21.9979968,8.507 C25.2749968,8.507 27.9299968,11.163 27.9299968,14.439 C27.9299968,17.717 25.2749968,20.373 21.9979968,20.373 L21.9979968,20.373 Z" id="Shape-2" opacity="0" sketch:type="MSShapeGroup"></path>
        </g>
    </g>
</svg>

<?xml version="1.0" encoding="iso-8859-1"?>
<!-- Generator: Adobe Illustrator 16.0.0, SVG Export Plug-In . SVG Version: 6.00 Build 0)  -->
<!DOCTYPE svg PUBLIC "-//W3C//DTD SVG 1.1//EN" "http://www.w3.org/Graphics/SVG/1.1/DTD/svg11.dtd">
<svg version="1.1" id="Capa_1" xmlns="http://www.w3.org/2000/svg" xmlns:xlink="http://www.w3.org/1999/xlink" x="0px" y="0px"
	 width="24.141px" height="28.704px" viewBox="0 0 24.141 28.704" style="enable-background:new 0 0 24.141 28.704;"
	 xml:space="preserve">
<path d="M10.096,14.439c0-3.944,3.199-7.142,7.141-7.142c0.104,0,0.205,0.011,0.305,0.016c0-3.556,0-6.271,0-6.738
	c0-1.274-1.65-0.03-1.65-0.03L5.426,8.356c0,0-0.979,0.1-2.105,0.375v11.338c1.127,0.243,2.105,0.355,2.105,0.355l10.236,7.596
	c0,0,1.879,1.573,1.879-0.051c0-0.49,0-3.042,0-6.402c-0.1,0.004-0.201,0.016-0.305,0.016
	C13.295,21.583,10.096,18.385,10.096,14.439z"/>
<path d="M0,11.02c0,2.116,0,5.821,0,7.302c0,0.568,0.801,1.009,1.785,1.337V9.219C0.801,9.627,0,10.208,0,11.02z"/>
<path d="M21.039,11.895l-1.498-1.499c0,0-2.389,2.545-2.543,2.545c-0.156,0-2.547-2.545-2.547-2.545l-1.496,1.499
	c0,0,2.541,2.335,2.541,2.548c0,0.208-2.541,2.544-2.541,2.544l1.496,1.496c0,0,2.373-2.544,2.547-2.544
	c0.172,0,2.543,2.544,2.543,2.544l1.498-1.496c0,0-2.545-2.373-2.545-2.544C18.494,14.268,21.039,11.895,21.039,11.895z"/>
<path d="M16.998,7.297c-3.943,0-7.145,3.198-7.145,7.142c0,3.946,3.201,7.144,7.145,7.144s7.143-3.197,7.143-7.144
	C24.141,10.495,20.941,7.297,16.998,7.297z M16.998,20.373c-3.275,0-5.934-2.656-5.934-5.934c0-3.276,2.658-5.932,5.934-5.932
	c3.277,0,5.932,2.656,5.932,5.932C22.93,17.717,20.275,20.373,16.998,20.373z"/>
<g>
</g>
<g>
</g>
<g>
</g>
<g>
</g>
<g>
</g>
<g>
</g>
<g>
</g>
<g>
</g>
<g>
</g>
<g>
</g>
<g>
</g>
<g>
</g>
<g>
</g>
<g>
</g>
<g>
</g>
</svg>
